emotes/16/face-tired.svg

<?xml version="1.0" encoding="UTF-8" standalone="no"?>
<svg
   xmlns:dc="http://purl.org/dc/elements/1.1/"
   xmlns:cc="http://creativecommons.org/ns#"
   xmlns:rdf="http://www.w3.org/1999/02/22-rdf-syntax-ns#"
   xmlns:svg="http://www.w3.org/2000/svg"
   xmlns="http://www.w3.org/2000/svg"
   xmlns:xlink="http://www.w3.org/1999/xlink"
   version="1.1"
   width="16"
   height="16"
   id="svg4021">
  <defs
     id="defs4023">
    <linearGradient
       x1="316"
       y1="911.36218"
       x2="316"
       y2="909.36218"
       id="linearGradient4260"
       xlink:href="#linearGradient4254"
       gradientUnits="userSpaceOnUse"
       gradientTransform="matrix(1.25,0,0,1,-386.99999,-899.36218)" />
    <linearGradient
       id="linearGradient4254">
      <stop
         id="stop4256"
         style="stop-color:#e84b00;stop-opacity:1"
         offset="0" />
      <stop
         id="stop4258"
         style="stop-color:#932601;stop-opacity:1"
         offset="1" />
    </linearGradient>
    <linearGradient
       x1="112.73888"
       y1="222.61801"
       x2="112.73888"
       y2="218.89624"
       id="linearGradient3143"
       xlink:href="#linearGradient11238-5"
       gradientUnits="userSpaceOnUse"
       gradientTransform="matrix(3.2242646,0,0,1.6121323,-353.49999,-345.88969)" />
    <linearGradient
       id="linearGradient11238-5">
      <stop
         id="stop11240-3"
         style="stop-color:#60170a;stop-opacity:1"
         offset="0" />
      <stop
         id="stop11242-4"
         style="stop-color:#29140a;stop-opacity:1"
         offset="1" />
    </linearGradient>
    <linearGradient
       x1="112.27365"
       y1="218.33238"
       x2="112.27365"
       y2="221.7764"
       id="linearGradient3108"
       xlink:href="#linearGradient3110"
       gradientUnits="userSpaceOnUse"
       gradientTransform="matrix(3.6848739,0,0,1.880821,-405.14285,-405.70463)" />
    <linearGradient
       id="linearGradient3110">
      <stop
         id="stop3112"
         style="stop-color:#421602;stop-opacity:1"
         offset="0" />
      <stop
         id="stop3114"
         style="stop-color:#a14908;stop-opacity:1"
         offset="1" />
    </linearGradient>
    <linearGradient
       x1="71.204407"
       y1="6.2375584"
       x2="71.204407"
       y2="44.340794"
       id="linearGradient5726-0"
       xlink:href="#linearGradient4011-7-5"
       gradientUnits="userSpaceOnUse"
       gradientTransform="matrix(0.35135133,0,0,0.35135133,-17.20365,-0.90927406)" />
    <linearGradient
       id="linearGradient4011-7-5">
      <stop
         id="stop4013-1-2"
         style="stop-color:#ffffff;stop-opacity:1"
         offset="0" />
      <stop
         id="stop4015-6-2"
         style="stop-color:#ffffff;stop-opacity:0.23529412"
         offset="0.507761" />
      <stop
         id="stop4017-5-5"
         style="stop-color:#ffffff;stop-opacity:0.15686275"
         offset="0.83456558" />
      <stop
         id="stop4019-1-13"
         style="stop-color:#ffffff;stop-opacity:0.39215687"
         offset="1" />
    </linearGradient>
    <linearGradient
       id="linearGradient4044-1-5">
      <stop
         id="stop4046-5-11"
         style="stop-color:#fff3cb;stop-opacity:1"
         offset="0" />
      <stop
         id="stop4048-7-0"
         style="stop-color:#fdde76;stop-opacity:1"
         offset="0.4334898" />
      <stop
         id="stop4050-0-0"
         style="stop-color:#f9c440;stop-opacity:1"
         offset="0.69222504" />
      <stop
         id="stop4052-2-9"
         style="stop-color:#e48b20;stop-opacity:1"
         offset="1" />
    </linearGradient>
    <radialGradient
       cx="282.78751"
       cy="533.11218"
       r="6.8303571"
       fx="277.66473"
       fy="533.11218"
       id="radialGradient4019"
       xlink:href="#linearGradient4044-1-5"
       gradientUnits="userSpaceOnUse"
       gradientTransform="matrix(0,0.91915984,-0.99587439,0,814.28776,272.60038)" />
  </defs>
  <metadata
     id="metadata4026">
    <rdf:RDF>
      <cc:Work
         rdf:about="">
        <dc:format>image/svg+xml</dc:format>
        <dc:type
           rdf:resource="http://purl.org/dc/dcmitype/StillImage" />
        <dc:title />
      </cc:Work>
    </rdf:RDF>
  </metadata>
  <g
     id="layer1">
    <path
       d="m 289.75,533.11218 a 6.375,6.375 0 1 1 -12.75,0 6.375,6.375 0 1 1 12.75,0 z"
       transform="matrix(1.1764706,0,0,1.1764706,-325.38236,-619.19081)"
       id="path3009-1-2"
       style="color:#000000;fill:url(#radialGradient4019);fill-opacity:1;fill-rule:nonzero;stroke:none;stroke-width:0.91071427;marker:none;visibility:visible;display:inline;overflow:visible;enable-background:accumulate" />
    <path
       d="m 14.50002,7.9997259 c 0,3.5900011 -2.91036,6.5003011 -6.4999107,6.5003011 -3.58989,0 -6.50009,-2.9103 -6.50009,-6.5003011 0,-3.5898 2.9102,-6.4997 6.50009,-6.4997 3.5895507,0 6.4999107,2.9099 6.4999107,6.4997 l 0,0 z"
       id="path8655-6-3-23"
       style="color:#000000;fill:none;stroke:url(#linearGradient5726-0);stroke-width:0.99999988;stroke-linecap:round;stroke-linejoin:round;stroke-miterlimit:4;stroke-opacity:1;stroke-dasharray:none;stroke-dashoffset:0;marker:none;visibility:visible;display:inline;overflow:visible;enable-background:accumulate" />
    <path
       d="m 113.2041,220.75713 a 1.0855188,1.8608894 0 1 1 -2.17104,0 1.0855188,1.8608894 0 1 1 2.17104,0 z"
       transform="matrix(3.6848739,0,0,1.880821,-405.14285,-404.70465)"
       id="path11236-6"
       style="opacity:0.5;color:#000000;fill:#ffffff;fill-opacity:1;fill-rule:nonzero;stroke:none;stroke-width:1;marker:none;visibility:visible;display:inline;overflow:visible;enable-background:accumulate" />
    <path
       d="m 8.0000038,5.0000004 c -2.2124317,0 -4,2.0147186 -4,4.5 0,1.9329976 1.790861,3.5000006 4,3.5000006 2.2091392,0 4.0000002,-1.567003 4.0000002,-3.5000006 0,-2.4852814 -1.787568,-4.5 -4.0000002,-4.5 z"
       id="path11236"
       style="color:#000000;fill:url(#linearGradient3108);fill-opacity:1;fill-rule:nonzero;stroke:none;stroke-width:1;marker:none;visibility:visible;display:inline;overflow:visible;enable-background:accumulate" />
    <path
       d="m 289.75,533.11218 a 6.375,6.375 0 1 1 -12.75,0 6.375,6.375 0 1 1 12.75,0 z"
       transform="matrix(1.1764706,0,0,1.1764706,-325.38236,-619.19081)"
       id="path3009-5-8-3"
       style="opacity:0.5;color:#000000;fill:none;stroke:#a53400;stroke-width:0.85000002;stroke-miterlimit:4;stroke-opacity:1;stroke-dasharray:none;marker:none;visibility:visible;display:inline;overflow:visible;enable-background:accumulate" />
    <path
       d="m 3.9812125,3.4509909 2.5187913,1.0490095 -2.5,1.5"
       id="path3397"
       style="opacity:0.3;fill:none;stroke:#ffffff;stroke-width:1px;stroke-linecap:butt;stroke-linejoin:miter;stroke-opacity:1" />
    <path
       d="m 4.2442903,2.5825298 2.2557135,0.9174706 -2.5,1.5"
       id="path3397-0"
       style="fill:none;stroke:#5e4506;stroke-width:1px;stroke-linecap:butt;stroke-linejoin:miter;stroke-opacity:1" />
    <path
       d="M 12.018795,3.4509905 9.5000038,4.5 12.000004,6"
       id="path3397-2"
       style="opacity:0.3;fill:none;stroke:#ffffff;stroke-width:1px;stroke-linecap:butt;stroke-linejoin:miter;stroke-opacity:1" />
    <path
       d="M 11.755717,2.5825294 9.5000038,3.5 12.000004,5"
       id="path3397-0-4"
       style="fill:none;stroke:#5e4506;stroke-width:1px;stroke-linecap:butt;stroke-linejoin:miter;stroke-opacity:1" />
    <path
       d="m 8.0000038,7.0000004 c 0.5522847,0 1,0.4477153 1,1 0,0.5522847 -0.4477153,1 -1,1 -0.5522847,0 -1,-0.4477153 -1,-1 0,-0.5522847 0.4477153,-1 1,-1 z m 0,0 c -1.9329966,0 -3.5,1.3431458 -3.5,3.0000006 0,1.656854 1.5670034,3 3.5,3 1.9329966,0 3.5000002,-1.343146 3.5000002,-3 0,-1.6568548 -1.5670036,-3.0000006 -3.5000002,-3.0000006 z"
       id="path11236-7"
       style="color:#000000;fill:url(#linearGradient3143);fill-opacity:1;fill-rule:nonzero;stroke:none;stroke-width:1;marker:none;visibility:visible;display:inline;overflow:visible;enable-background:accumulate" />
    <rect
       width="4"
       height="1"
       x="6.0000138"
       y="9.0000038"
       id="rect4199"
       style="color:#000000;fill:#000000;fill-opacity:1;fill-rule:nonzero;stroke:none;stroke-width:1.35736394;marker:none;visibility:visible;display:inline;overflow:visible;enable-background:accumulate" />
    <path
       d="m 5.5155868,10.000001 c -0.005,0.0479 -0.015583,0.094 -0.015583,0.14286 0,1.02567 1.1192897,1.85714 2.5,1.85714 1.3807104,0 2.5000002,-0.83147 2.5000002,-1.85714 0,-0.0489 -0.01125,-0.0949 -0.01567,-0.14286 l -4.9687507,0 z"
       id="path3348-1"
       style="color:#000000;fill:url(#linearGradient4260);fill-opacity:1;fill-rule:nonzero;stroke:none;stroke-width:1.35736394;marker:none;visibility:visible;display:inline;overflow:visible;enable-background:accumulate" />
    <path
       d="m 16.000004,4.8614497e-7 0,1.99999991385503 -1,1 1,0 0,3 -5,0 0,-2 1,-1 -1,0 0,-2.99999991385503 z"
       id="rect3156"
       style="color:#000000;fill:#3465a4;fill-opacity:1;fill-rule:nonzero;stroke:none;stroke-width:1.07142854;marker:none;visibility:visible;display:inline;overflow:visible;enable-background:accumulate" />
    <path
       d="m 15.000004,1.0000004 0,1 -2,2 2,0 0,1 -3,0 0,-1 2,-2 -2,0 0,-1 z"
       id="rect3156-0"
       style="color:#000000;fill:#d1e0ef;fill-opacity:1;fill-rule:nonzero;stroke:none;stroke-width:1.07142854;marker:none;visibility:visible;display:inline;overflow:visible;enable-background:accumulate" />
  </g>
</svg>

<svg xmlns="http://www.w3.org/2000/svg" xmlns:xlink="http://www.w3.org/1999/xlink" viewBox="0 0 16 16"><defs><linearGradient x1="316" y1="911.362" x2="316" y2="909.362" id="j" xlink:href="#a" gradientUnits="userSpaceOnUse" gradientTransform="matrix(1.25 0 0 1 -387 -899.362)"/><linearGradient id="a"><stop offset="0" stop-color="#e84b00"/><stop offset="1" stop-color="#932601"/></linearGradient><linearGradient x1="112.739" y1="222.618" x2="112.739" y2="218.896" id="i" xlink:href="#b" gradientUnits="userSpaceOnUse" gradientTransform="matrix(3.22426 0 0 1.61213 -353.5 -345.89)"/><linearGradient id="b"><stop offset="0" stop-color="#60170a"/><stop offset="1" stop-color="#29140a"/></linearGradient><linearGradient x1="112.274" y1="218.332" x2="112.274" y2="221.776" id="h" xlink:href="#c" gradientUnits="userSpaceOnUse" gradientTransform="matrix(3.68487 0 0 1.88082 -405.143 -405.705)"/><linearGradient id="c"><stop offset="0" stop-color="#421602"/><stop offset="1" stop-color="#a14908"/></linearGradient><linearGradient x1="71.204" y1="6.238" x2="71.204" y2="44.341" id="g" xlink:href="#d" gradientUnits="userSpaceOnUse" gradientTransform="translate(-17.204 -.91) scale(.35135)"/><linearGradient id="d"><stop offset="0" stop-color="#fff"/><stop offset=".508" stop-color="#fff" stop-opacity=".235"/><stop offset=".835" stop-color="#fff" stop-opacity=".157"/><stop offset="1" stop-color="#fff" stop-opacity=".392"/></linearGradient><linearGradient id="e"><stop offset="0" stop-color="#fff3cb"/><stop offset=".433" stop-color="#fdde76"/><stop offset=".692" stop-color="#f9c440"/><stop offset="1" stop-color="#e48b20"/></linearGradient><radialGradient cx="282.788" cy="533.112" r="6.83" fx="277.665" fy="533.112" id="f" xlink:href="#e" gradientUnits="userSpaceOnUse" gradientTransform="matrix(0 .91916 -.99587 0 814.288 272.6)"/></defs><path d="M289.75 533.112a6.375 6.375 0 1 1-12.75 0 6.375 6.375 0 1 1 12.75 0z" transform="translate(-325.382 -619.19) scale(1.17647)" color="#000" fill="url(#f)" overflow="visible"/><path d="M14.5 8a6.5 6.5 0 1 1-13 0 6.5 6.5 0 0 1 13 0z" color="#000" fill="none" stroke="url(#g)" stroke-linecap="round" stroke-linejoin="round" overflow="visible"/><path d="M12 10.5a4 3.5 0 1 1-8 0 4 3.5 0 1 1 8 0z" opacity=".5" color="#000" fill="#fff" overflow="visible"/><path d="M8 5C5.788 5 4 7.015 4 9.5 4 11.433 5.79 13 8 13s4-1.567 4-3.5C12 7.015 10.212 5 8 5z" color="#000" fill="url(#h)" overflow="visible"/><path d="M15.5 8a7.5 7.5 0 1 1-15 0 7.5 7.5 0 1 1 15 0z" opacity=".5" color="#000" fill="none" stroke="#a53400" overflow="visible"/><path d="M3.98 3.45L6.5 4.5 4 6" opacity=".3" fill="none" stroke="#fff"/><path d="M4.244 2.583L6.5 3.5 4 5" fill="none" stroke="#5e4506"/><path d="M12.02 3.45L9.5 4.5 12 6" opacity=".3" fill="none" stroke="#fff"/><path d="M11.756 2.583L9.5 3.5 12 5" fill="none" stroke="#5e4506"/><path d="M8 7a1 1 0 1 1 0 2 1 1 0 0 1 0-2zm0 0c-1.933 0-3.5 1.343-3.5 3s1.567 3 3.5 3 3.5-1.343 3.5-3S9.933 7 8 7z" color="#000" fill="url(#i)" overflow="visible"/><path color="#000" overflow="visible" d="M6 9h4v1H6z"/><path d="M5.516 10c-.005.048-.016.094-.016.143C5.5 11.17 6.62 12 8 12s2.5-.83 2.5-1.857c0-.05-.01-.095-.016-.143H5.516z" color="#000" fill="url(#j)" overflow="visible"/><path d="M16 0v2l-1 1h1v3h-5V4l1-1h-1V0z" color="#000" fill="#3465a4" overflow="visible"/><path d="M15 1v1l-2 2h2v1h-3V4l2-2h-2V1z" color="#000" fill="#d1e0ef" overflow="visible"/></svg>
